X: 35644
T: Sailor And The Maid, The
R: reel
M: 4/4
K: Bdorian
fe|:fBBA Bcde|f2df e2de|fBBA Bcde|fdaf edde|
fBBA Bcde|f2df e2fg|agfe fecA|Bcec B2fe:|
|:ABBA B3c|dcec dcBA|EAAE A3B|cAec dcBA|
ABBA B3c|dcec dcB2|ABBA Bcde|fdec d4:|
|:f2fg fecB|cefg agfe|f2fg fecB|cece B2ce|
f2fg fecB|cefg a3b|c'bac' bafg|afec BBce:|

